X: 35142
T: Ronas Voe
R: waltz
M: 3/4
K: Dmajor
|:F>G|A3 F A2|f2 c2 d2|(3efe d3 B|A4 d2|B4 d2|e4 f2|A6|(3ABA F3 G|
A4 F2|(3fgf- f2 c>d|e2 (3ded c2|d2 A2 d2|e4 B2|e4 d2|c6|(3efe E2 (3EFG|
A6|f3 c d2|e2 d3 c|A2 d2 c2|B4 d2|e4 d2|g6-|g4 B2|
B2 ^A2 B2|c6|d3 c d2|e2 f2 g2|f a3 f2|(3efe a2 c2|d3 A F2|D4:|

